src/front_assets/svg/notifications.svg

<svg width="20" height="24" viewBox="0 0 20 24" fill="none" xmlns="http://www.w3.org/2000/svg">
<path d="M15.8434 7.74606C15.8434 6.07266 15.2217 4.4678 14.115 3.28452C13.0083 2.10125 11.5073 1.43649 9.94221 1.43649C8.37712 1.43649 6.87614 2.10125 5.76945 3.28452C4.66277 4.4678 4.04104 6.07266 4.04104 7.74606C4.04104 15.1072 1.09045 17.2104 1.09045 17.2104H18.794C18.794 17.2104 15.8434 15.1072 15.8434 7.74606Z" stroke="black" stroke-width="1.5" stroke-linecap="round" stroke-linejoin="round"/>
<path d="M11.6454 21.4207C11.4726 21.7394 11.2244 22.0041 10.9257 22.188C10.627 22.372 10.2883 22.4688 9.9435 22.4688C9.59874 22.4688 9.26003 22.372 8.96133 22.188C8.66262 22.0041 8.4144 21.7394 8.24155 21.4207" stroke="black" stroke-width="1.5" stroke-linecap="round" stroke-linejoin="round"/>
</svg>

<svg xmlns="http://www.w3.org/2000/svg" width="20" height="24" fill="none"><path stroke="#000" stroke-linecap="round" stroke-linejoin="round" stroke-width="1.5" d="M15.843 7.746c0-1.673-.621-3.278-1.728-4.461s-2.608-1.849-4.173-1.849-3.066.665-4.173 1.849C4.663 4.468 4.041 6.073 4.041 7.746c0 7.361-2.95 9.464-2.95 9.464h17.703s-2.95-2.103-2.95-9.464M11.645 21.42a2.04 2.04 0 0 1-.72.768 1.87 1.87 0 0 1-.982.28 1.87 1.87 0 0 1-.982-.28 2.04 2.04 0 0 1-.72-.767"/></svg>
